X: 193
T: 8me ETUDE.	 Op. 25
C: Fryderyk Chopin
%%abc-version 2.0
%%abcx-abcm2ps-target-version 5.9.1 (29 Sep 2008)
%%abc-creator hum2abc beta
%%abcx-conversion-date 2021/10/03 11:23:57
%%abc-edited-by Jędrzej Mróz
%%abc-edited-by Jędrzej Mróz
%%abc-edited-by Mateusz Mrugas
%%abcx-initial-encoding-date 2018-10-20
%%humdrum-veritas 167832491
%%humdrum-veritas-data 3825787042
%%linebreak <none>
%%barnumbers 0
L: 1/8
M: C|
N: Derived from 025_7-12-1a-BH-008.krn
P: DOUZE | ETUDES | pour le piano
Q: "Vivace molto legato." 1/2=69
%%staves {1 2}
V: 1 clef=treble
V: 2 clef=bass
K: Db
[V:1] (3[eG][fA][eG] (3[fA][eG][fA] (3[dF][eG][=e=G] (3[_gB][fA][dF] | 
[V:2] (3A,,,[A,C,][CE,] (3[EA,][CE,][A,C,] (3D,,[A,D,][DF,] (3[A,D,][DF,][A,D,] | 
[V:1] (3[fA][eG][fA] (3[eG][fA][eG] (3[dF][eG][=e=G] (3[_gB][fA][dF] | 
[V:2] (3A,,[A,C,][CE,] (3[EA,][CE,][A,C,] (3D,,[A,D,][DF,] (3[A,D,][DF,][A,D,] | 
[V:1] (3[e=G][fA][^f=A] (3[=gB][ac][b_d] (3[=b=d][c'e][c'=e] (3[_e'g][d'f][ac] | 
[V:2] (3E,,[DE,][EB,] (3[=GD][EB,][DG,] (3A,,[EA,][AC] (3D,[DF,][FA,] | 
[V:1] (3[c'e][bd][c'e] (3[bd][c'e][bd] (3[ac][bd][_gB] (3[ac][fA][gB] | 
[V:2] (3.E,[E=G,][=GB,] (3[BD][GB,][EG,] (3[AC][FA,][_GB,] (3[E_G,][FA,][DF,] | 
[V:1] (3[eG][fA][eG] (3[fA][eG][fA] (3[dF][eG][=e=G] (3[_gB][fA][dF] | 
[V:2] (3A,,[A,C,][CE,] (3[EA,][CE,][A,C,] (3D,,[A,D,][DF,] (3[A,D,][DF,][A,D,] | 
[V:1] (3[fA][eG][fA] (3[eG][fA][eG] (3[dF][eG][=e=G] (3[_gB][fA][dF] | 
[V:2] (3A,,[A,C,][CE,] (3[EA,][CE,][A,C,] (3D,,[A,D,][DF,] (3[A,D,][DF,][A,D,] | 
[V:1] (3[eG][=e=G][fA] (3[^f=A][=gB][^g=B] (3[=ac][bd][b=d] (3[c'_e][^c'=e][=d'f] | 
[V:2] (3.G,,[DG,][EB,] (3[GD][EB,][DG,] (3.G,,[EG,][GD][K:clef=treble] (3[BE][GD][EG,][K:clef=bass] | 
[V:1] (3[e'g][b'd'][=g'=b] (3[a'c'][f'=a][_g'_b] (3[=e'=g][f'_a][=d'f] (3[e'_g][c'=e][_d'f] | 
[V:2] (3.A,,[K:clef=treble][GA,][AE] (3[cG][AE][GA,][K:clef=bass] (3.D,[K:clef=treble][FA,][A_D] (3[dF][AD][FA,][K:clef=bass] | 
[V:1] (3[bd][e'g][c'=e] (3[d'f][bd][d'f] (3[c'_e][d'f][c'e] (3[bd][=ac][c'e] | 
[V:2] (3.B,,[K:clef=treble][DF,][FB,] (3[BD][FB,][DF,][K:clef=bass] (3.F,,[CF,][F=A,] (3[=AC][FA,][CF,] | 
[V:1] (3[bd][c'e][bd] (3[ac][gB][bd] (3[a_c][bd][=gB] (3[ac][fA][ac] | 
[V:2] (3.G,,[B,D,][DG,] (3[GB,][DG,][B,D,] (3.=D,,[A,D,][_CF,] (3[=DA,][CF,][A,D,] | 
[V:1] (3[_gB][ac][gB] (3[fA][eG][gB] (3[fA][gB][fA] (3[eG][dF][fA] | 
[V:2] (3E,,[B,E,][EG,] (3A,,[A,C,][CE,] (3D,,[A,D,][DF,] (3B,,,[F,B,,][B,D,] | 
[V:1] (3[e=G][fA][eG] (3[dF][BD][cE] (3[AC][BD][AC] (3[BD][AC][cE] | 
[V:2] (3E,,[E,=G,,][=G,B,,] (3[B,E,][G,B,,][E,G,,] (3.A,,, z [A,A,,] (3[E,C,][A,A,,][E,C,] | 
[V:1] (3[BD][cE][BD] (3[cE][BD][cE] (3[AC][BD][=B=D] (3[_dF][cE][AC] | 
[V:2] (3[=G,A,,][E,D,][G,A,,] (3[E,D,][G,A,,][E,D,] (3[A,A,,][E,C,][A,A,,] (3[E,C,][A,A,,][E,C,] | 
[V:1] (3[cE][BD][cE] (3[BD][cE][BD] (3[AC][BD][=B=D] (3[_dF][cE][AC] | 
[V:2] (3[=G,A,,][E,D,][G,A,,] (3[E,D,][G,A,,][E,D,] (3[A,A,,][E,C,][A,A,,] (3[E,C,][A,A,,][E,C,] | 
[V:1] (3[eG][_fA][eG] (3[fA][eG][fA] (3[d_F][=d=F][e_G] (3[g__B][_fA][d_F] | 
[V:2] (3[A,A,,][G,E,][A,A,,] (3[G,E,][A,A,,][G,E,] (3[A,A,,][_F,D,][A,A,,] (3[F,D,][A,A,,][F,D,] | 
[V:1] (3[_fA][eG][fA] (3[eG][fA][eG] (3[d_F][=d=F][e_G] (3[_g__B][fA][d_F] | 
[V:2] (3[A,A,,][G,E,][A,A,,] (3[G,E,][A,A,,][G,E,] (3[A,A,,][_F,D,][A,A,,] (3[F,D,][A,A,,][F,D,] | 
[V:1] (3[_fA][e=G][=gB] (3[=fA][ac][gB] (3[bd][ac][c'e] (3[bd][d'f][c'e] | 
[V:2] (3[=G,A,,][E,D,][G,A,,] (3[E,D,][G,A,,][E,D,] (3[G,A,,][E,D,][G,A,,] (3[E,D,][G,A,,][E,D,] | 
[V:1] (3[e'=g][d'f][f'a] (3[e'=g][=g'b][f'a] (3[a'c'][g'b][b'd'] (3[a'c'][c''e'][b'd'] | 
[V:2] (3[=G,A,,][E,D,][G,A,,] (3[E,D,][G,A,,][E,D,] (3[G,A,,][E,D,][G,A,,] (3[E,D,][G,A,,][E,D,] | 
[V:1] (3[a'c'][b'd'][_g'b] (3[a'c'][f'a][g'b] (3[e'g][f'a][d'f] (3[e'g][c'e][d'f] | 
[V:2] (3[A,A,,] z[K:clef=treble] [eG] (3[fA][dF][eG] (3[cE][dF][BD] (3[cE][AC][BD][K:clef=bass] | 
[V:1] (3[bd][c'e][ac] (3[bd][gB][ac] (3[fA][gB][eG] (3[fA][dF][fA] | 
[V:2] (3[GB,][AC][FA,] (3[GB,][EG,][FA,] (3[DF,][EG,][CE,] (3[DF,][B,D,][DF,] | 
[V:1] (3!accent![eG][fA][eG] (3[fA][eG][fA] (3[dF][eG][=e=G] (3[_gB][fA][dF] | 
[V:2] (3.A,,[A,C,][CE,] (3[EA,][CE,][A,C,] (3.D,,[A,D,][DF,] (3[A,D,][DF,][A,D,] | 
[V:1] (3[fA][eG][fA] (3[eG][fA][eG] (3[dF][eG][=e=G] (3[_gB][fA][dF] | 
[V:2] (3.A,,[A,C,][CE,] (3[EA,][CE,][A,C,] (3.D,,[A,D,][DF,] (3[A,D,][DF,][A,D,] | 
[V:1] (3[fA][_gB][fA] (3[gB][fA][gB] (3[eG][fA][gB] (3[a_c][bd][ac] | 
[V:2] (3.B,,[B,F,][=DA,] (3[FB,][DA,][B,F,] (3E,B,[EG,] (3.D,D[FA,] | 
[V:1] (3[gB][a_c][bd] (3[=c'e][d'f][c'e] (3[bd][c'e][d'f] (3[e'=g][f'a][e'g] | 
[V:2] (3.G,D[GB,] (3.F,[K:clef=treble]F[=AC] (3.B,F[BD] (3.__B,E[=GD] | 
[V:1] (3[f'a][e'=g][f'a] (3[e'g][f'a][e'g] (3[f'a][e'g][f'a] (3[e'g][f'a][e'g] | 
[V:2] .[d2E2]z2z2[K:clef=bass]!accent!__B,,2 | 
[V:1] (3[f'a][e'_g][f'a] (3[e'g][f'a][e'g] (3[f'a][e'g][f'a] (3[e'g][f'a][e'g] | 
[V:2] .A,,2[K:clef=treble](3[BG][AC][BG] (3[AC][BG][AC] (3[BG][AC][cE] | 
[V:1] (3[e'g][g'b][f'a] (3[e'g][d'f][bd] (3[ac][c'e][bd] (3[ac][gB][eG] | 
[V:2] [eG] z[K:clef=bass] (3.A,,[A,C,][CE,] [EG,] zz2 | 
[V:1] (3.[dF] z [d'f] (3[e'g][d'f][bd] (3[_c'e][d'f][c'e] (3[d'f][c'e][d'f] | 
[V:2] (3.D,,[K:clef=treble] [FA,][AD] (3[dF][AD][FA,][K:clef=bass] (3.D,[K:clef=treble][FA,][AD] (3[_cF][AD][FA,][K:clef=bass] | 
[V:1] (3[_c'e][d'f][c'e] (3[d'f][c'e][a_c] (3[bd][gB][bd] (3[a=c][eG][fA] | 
[V:2] (3.D,,[DF,][FA,] (3[AD][FA,][DF,] (3.G,,[DG,][GB,] (3.A,,[A,C,][CE,] | 
[V:1] (3[dF][eG][dF] (3[eG][dF][BD] (3[_cE][dF][cE] (3[dF][cE][dF] | 
[V:2] (3.D,,[F,A,,][A,D,] (3[DF,][A,D,][F,A,,] (3.D,,[F,A,,][A,D,] (3[_CF,][A,D,][F,A,,] | 
[V:1] (3[_cE][dF][cE] (3[dF][cE][A_C] (3[BD][GB,][BD] (3[A=C][EG,][FA,] | 
[V:2] (3.D,,[D,F,,][F,A,,] (3[A,D,][F,A,,][D,F,,] (3.G,,,D,[G,B,,] (3.A,,,A,,[C,E,,] | 
[V:1] (3[DF,][=D^F,][E=G,] (3[=E^G,][F=A,][^F^A,] (3[=G=B,][AC][=A^C] (3[B=D][=B^D][c=E] | 
[V:2] [D,D,,] zz2(3[_A,_A,,][_G,E,][A,A,,] (3[G,E,][A,A,,][G,E,] | 
[V:1] (3[dF][=d^F][e=G] (3[=e^G][f=A][^f^A] (3[=g=B][_ac][=a^c] (3[_b=d][=b^d][c'=e] | 
[V:2] (3[A,A,,][G,E,][A,A,,] (3[G,E,][A,A,,][G,E,] (3[A,A,,][G,E,][A,A,,] (3[G,E,][A,A,,][G,E,] | 
[V:1] (3[d'f][=d'^f][e'=g] (3[=e'^g][f'=a][^f'^a] (3[=g'=b][_a'c'][=a'^c'] (3[_b'=d'][=b'^d'][c''=e'] | 
[V:2] (3[A,A,,][G,E,][A,A,,] (3[G,E,][A,A,,][G,E,] (3[A,A,,][G,E,][A,A,,] (3[G,E,][A,A,,][G,E,] | 
[V:1] .[d'f] z[a2e2A2][f2d2A2F2][B2G2D2B,2] | 
[V:2] .[F,D,] z[G2C2A,2][D2A,2D,2][G,2D,2G,,2] | 
[V:1] !fermata![d8A8D8] |]  
[V:2] !fermata![F,8A,,8D,,8] |]
